web/src/lib/icons/sweep-icon.svg

<svg xmlns="http://www.w3.org/2000/svg" viewBox="0 0 316 307"><g fill="none" stroke-width="2"><path stroke="#ffa001" d="M223.04 124.38q-17.32-11.79-36.63-20.15" vector-effect="non-scaling-stroke"/><path stroke="#fecf5f" d="M222.71 187.17c-2.81-1.83-5.28-3.99-7.93-5.51q-24.34-13.89-46.34-24.59-15.56-7.57-31.42-15.09-1.42-.67-3.84-1.54-1.97-.71-3.81-1.61" vector-effect="non-scaling-stroke"/></g><path fill="#ff8401" d="M223.04 124.38q-17.32-11.79-36.63-20.15 2.01-4.57 4.16-8.44 24.82-44.76 41.95-76.29 4.33-7.96 7.02-10.19c8.04-6.64 17.88-7.4 26.57-1.37q9.88 6.85 8.7 19.89-.37 4.12-2.15 7.32-25.88 46.55-46.34 83.51-1.46 2.62-3.28 5.72"/><path fill="#febc01" d="M89.52 70.7q-1 3.3-4.08 13.68c-.9 3.05-4.05 4.19-6.55 2.47q-1.21-.82-2.04-3.39-1.4-4.32-3.66-12.77a1.4 1.4 0 0 0-.98-.98q-6.75-1.82-11.38-3.31c-2.2-.71-4.14-1.98-3.98-4.41q.22-3.21 3.24-4.18 4.45-1.44 12.58-3.64a1.32 1.32 0 0 0 .94-.95q1.55-6.1 4.01-13.62c1.38-4.21 6.45-4.7 8.05-.44q1.93 5.12 4.09 13.85a1.46 1.45-88.6 0 0 .98 1.04l12.78 3.9a2.28 2.12 69.8 0 1 .67.34c4.47 3.41 1.22 7.46-3.19 8.45q-1.14.26-10.54 3.02a1.41 1.38-89.4 0 0-.94.94m96.89 33.53q19.31 8.36 36.63 20.15 3.66 3.14 7.14 6.41c7.78 7.31 10 16.41 8.85 26.83q-.43 3.91-3.51 10.38-2.94 6.16-5.48 13.1-1.1 2.98-2.59 4.43-2.01 1.94-4.74 1.64c-2.81-1.83-5.28-3.99-7.93-5.51q-24.34-13.89-46.34-24.59-15.56-7.57-31.42-15.09-1.42-.67-3.84-1.54-1.97-.71-3.81-1.61c-1.06-1.91-.19-4.91.81-6.42q5.48-8.24 11.96-19.48c6.22-10.79 20.1-14.85 31.83-12.83q4.59.79 12.44 4.13M52.88 129.3q-.02 2.66-2.7 3.65-5.69 2.09-11.99 3.96a1.79 1.77 1.2 0 0-1.17 1.11q-1.06 2.94-4.4 13.61c-1.12 3.56-5.15 3.67-7.34.58a1.41 1.37-70.7 0 1-.18-.39l-3.81-14.02a1.99 1.98-89.2 0 0-1.33-1.37q-6.95-2.08-10.98-3.59-2.78-1.04-2.75-3.97.02-2.92 2.82-3.91 4.06-1.44 11.05-3.39a1.99 1.98-89.8 0 0 1.35-1.35l4.07-13.95a1.41 1.37 71.7 0 1 .18-.38c2.25-3.05 6.28-2.87 7.33.71q3.15 10.73 4.15 13.69a1.79 1.77-.2 0 0 1.15 1.13q6.27 1.99 11.92 4.18 2.66 1.04 2.63 3.7"/><path fill="#fee1bc" d="M129.37 138.83q1.84.9 3.81 1.61 2.42.87 3.84 1.54 15.86 7.52 31.42 15.09 22 10.7 46.34 24.59c2.65 1.52 5.12 3.68 7.93 5.51q-9.89 46.96-26.2 92.34c-1.57 4.36-4.66 11.8-8.35 15.27-5.32 5-11.29 8.78-18.67 7.82-5.46-.71-9.76-2.15-11.59-7.73-1.55-4.72-.76-8.27.69-12.79a.55.55 0 0 0-.35-.69l-.28-.1a.24.23-67.9 0 0-.28.12q-3.18 6.29-6.96 9.56-10.98 9.5-24.45 4.06c-9.66-3.91-8.34-15.3-4.29-22.63a.39.39 0 0 0-.6-.49q-1.08.95-1.99 2.32a3.28 3.05-88.6 0 1-.83.85q-2.68 1.87-5.33 4.18c-5.56 4.85-13.22 6.18-20.44 5.45-5.57-.56-13.48-3.56-15.41-9.32q-2.23-6.68.77-12.67c.97-1.94 2.99-3.79 4.06-5.39a.43.42-3.1 0 0-.63-.56q-5.12 4.22-12.79 7.39-6.55 2.7-11.57 2.77-6.25.08-11.84-1.57c-11.13-3.28-18.14-15.36-8.57-25.07q3.03-3.07 5.93-4.93a.39.39 0 0 0 .14-.51l-.01-.01a.43.41 63.4 0 0-.54-.19q-8.52 3.86-18.56 4.16c-7.42.22-12.51-2.01-17.14-7.67-5.5-6.73-5.77-15.21-1.15-22.4 1.14-1.77 3.73-3 5.97-3.51 18.63-4.18 35.69-12.52 53.4-22.29q20.45-11.29 34.77-21.59 8.63-6.2 17.14-12.14 2.89-2.02 6.38-5.09 3.14-2.75 6.23-5.29"/><path fill="#febc01" d="M280.57 188.89a1.35 1.33 1 0 0-.86-.88l-13.61-4.45a.9.87-14.1 0 1-.35-.2c-3.74-3.46-.22-7.55 3.73-8.5q3.04-.73 9.98-2.69a.88.86-87.8 0 0 .59-.56q2.99-8.67 3.91-11.77.84-2.81 1.73-3.62c2.81-2.54 5.78-.6 6.85 2.61q1.69 5.12 4.06 12.14a1.68 1.65 1.3 0 0 1 1.03q5.62 2.12 12.45 4.19c3.03.92 4.48 4.32 1.93 6.83q-1.06 1.04-3.52 1.75-4.96 1.41-10.6 3.13a2.33 2.33 0 0 0-1.54 1.5q-2.01 6.19-4.03 13.08c-1.01 3.41-4.79 4.46-7.28 1.37a.76.64 21.6 0 1-.14-.26z"/></svg>

<svg xmlns="http://www.w3.org/2000/svg" version="1.1" viewBox="0.00 0.00 316.00 307.00">
<g stroke-width="2.00" fill="none" stroke-linecap="butt">
<path stroke="#ffa001" vector-effect="non-scaling-stroke" d="
  M 223.04 124.38
  Q 205.72 112.59 186.41 104.23"
/>
<path stroke="#fecf5f" vector-effect="non-scaling-stroke" d="
  M 222.71 187.17
  C 219.90 185.34 217.43 183.18 214.78 181.66
  Q 190.44 167.77 168.44 157.07
  Q 152.88 149.50 137.02 141.98
  Q 135.60 141.31 133.18 140.44
  Q 131.21 139.73 129.37 138.83"
/>
</g>
<path fill="#ff8401" d="
  M 223.04 124.38
  Q 205.72 112.59 186.41 104.23
  Q 188.42 99.66 190.57 95.79
  Q 215.39 51.03 232.52 19.50
  Q 236.85 11.54 239.54 9.31
  C 247.58 2.67 257.42 1.91 266.11 7.94
  Q 275.99 14.79 274.81 27.83
  Q 274.44 31.95 272.66 35.15
  Q 246.78 81.70 226.32 118.66
  Q 224.86 121.28 223.04 124.38
  Z"
/>
<path fill="#febc01" d="
  M 89.52 70.70
  Q 88.52 74.00 85.44 84.38
  C 84.54 87.43 81.39 88.57 78.89 86.85
  Q 77.68 86.03 76.85 83.46
  Q 75.45 79.14 73.19 70.69
  A 1.40 1.40 0.0 0 0 72.21 69.71
  Q 65.46 67.89 60.83 66.40
  C 58.63 65.69 56.69 64.42 56.85 61.99
  Q 57.07 58.78 60.09 57.81
  Q 64.54 56.37 72.67 54.17
  A 1.32 1.32 0.0 0 0 73.61 53.22
  Q 75.16 47.12 77.62 39.60
  C 79.00 35.39 84.07 34.90 85.67 39.16
  Q 87.60 44.28 89.76 53.01
  A 1.46 1.45 -88.6 0 0 90.74 54.05
  L 103.52 57.95
  A 2.28 2.12 69.8 0 1 104.19 58.29
  C 108.66 61.70 105.41 65.75 101.00 66.74
  Q 99.86 67.00 90.46 69.76
  A 1.41 1.38 -89.4 0 0 89.52 70.70
  Z"
/>
<path fill="#febc01" d="
  M 186.41 104.23
  Q 205.72 112.59 223.04 124.38
  Q 226.70 127.52 230.18 130.79
  C 237.96 138.10 240.18 147.20 239.03 157.62
  Q 238.60 161.53 235.52 168.00
  Q 232.58 174.16 230.04 181.10
  Q 228.94 184.08 227.45 185.53
  Q 225.44 187.47 222.71 187.17
  C 219.90 185.34 217.43 183.18 214.78 181.66
  Q 190.44 167.77 168.44 157.07
  Q 152.88 149.50 137.02 141.98
  Q 135.60 141.31 133.18 140.44
  Q 131.21 139.73 129.37 138.83
  C 128.31 136.92 129.18 133.92 130.18 132.41
  Q 135.66 124.17 142.14 112.93
  C 148.36 102.14 162.24 98.08 173.97 100.10
  Q 178.56 100.89 186.41 104.23
  Z"
/>
<path fill="#febc01" d="
  M 52.88 129.30
  Q 52.86 131.96 50.18 132.95
  Q 44.49 135.04 38.19 136.91
  A 1.79 1.77 1.2 0 0 37.02 138.02
  Q 35.96 140.96 32.62 151.63
  C 31.50 155.19 27.47 155.30 25.28 152.21
  A 1.41 1.37 -70.7 0 1 25.10 151.82
  L 21.29 137.80
  A 1.99 1.98 -89.2 0 0 19.96 136.43
  Q 13.01 134.35 8.98 132.84
  Q 6.20 131.80 6.23 128.87
  Q 6.25 125.95 9.05 124.96
  Q 13.11 123.52 20.10 121.57
  A 1.99 1.98 -89.8 0 0 21.45 120.22
  L 25.52 106.27
  A 1.41 1.37 71.7 0 1 25.70 105.89
  C 27.95 102.84 31.98 103.02 33.03 106.60
  Q 36.18 117.33 37.18 120.29
  A 1.79 1.77 -0.2 0 0 38.33 121.42
  Q 44.60 123.41 50.25 125.60
  Q 52.91 126.64 52.88 129.30
  Z"
/>
<path fill="#fee1bc" d="
  M 129.37 138.83
  Q 131.21 139.73 133.18 140.44
  Q 135.60 141.31 137.02 141.98
  Q 152.88 149.50 168.44 157.07
  Q 190.44 167.77 214.78 181.66
  C 217.43 183.18 219.90 185.34 222.71 187.17
  Q 212.82 234.13 196.51 279.51
  C 194.94 283.87 191.85 291.31 188.16 294.78
  C 182.84 299.78 176.87 303.56 169.49 302.60
  C 164.03 301.89 159.73 300.45 157.90 294.87
  C 156.35 290.15 157.14 286.60 158.59 282.08
  A 0.55 0.55 0.0 0 0 158.24 281.39
  L 157.96 281.29
  A 0.24 0.23 -67.9 0 0 157.68 281.41
  Q 154.50 287.70 150.72 290.97
  Q 139.74 300.47 126.27 295.03
  C 116.61 291.12 117.93 279.73 121.98 272.40
  A 0.39 0.39 0.0 0 0 121.38 271.91
  Q 120.30 272.86 119.39 274.23
  A 3.28 3.05 -88.6 0 1 118.56 275.08
  Q 115.88 276.95 113.23 279.26
  C 107.67 284.11 100.01 285.44 92.79 284.71
  C 87.22 284.15 79.31 281.15 77.38 275.39
  Q 75.15 268.71 78.15 262.72
  C 79.12 260.78 81.14 258.93 82.21 257.33
  A 0.43 0.42 -3.1 0 0 81.58 256.77
  Q 76.46 260.99 68.79 264.16
  Q 62.24 266.86 57.22 266.93
  Q 50.97 267.01 45.38 265.36
  C 34.25 262.08 27.24 250.00 36.81 240.29
  Q 39.84 237.22 42.74 235.36
  A 0.39 0.39 0.0 0 0 42.88 234.85
  L 42.87 234.84
  A 0.43 0.41 63.4 0 0 42.33 234.65
  Q 33.81 238.51 23.77 238.81
  C 16.35 239.03 11.26 236.80 6.63 231.14
  C 1.13 224.41 0.86 215.93 5.48 208.74
  C 6.62 206.97 9.21 205.74 11.45 205.23
  C 30.08 201.05 47.14 192.71 64.85 182.94
  Q 85.30 171.65 99.62 161.35
  Q 108.25 155.15 116.76 149.21
  Q 119.65 147.19 123.14 144.12
  Q 126.28 141.37 129.37 138.83
  Z"
/>
<path fill="#febc01" d="
  M 280.57 188.89
  A 1.35 1.33 1.0 0 0 279.71 188.01
  L 266.10 183.56
  A 0.90 0.87 -14.1 0 1 265.75 183.36
  C 262.01 179.90 265.53 175.81 269.48 174.86
  Q 272.52 174.13 279.46 172.17
  A 0.88 0.86 -87.8 0 0 280.05 171.61
  Q 283.04 162.94 283.96 159.84
  Q 284.80 157.03 285.69 156.22
  C 288.50 153.68 291.47 155.62 292.54 158.83
  Q 294.23 163.95 296.60 170.97
  A 1.68 1.65 1.3 0 0 297.60 172.00
  Q 303.22 174.12 310.05 176.19
  C 313.08 177.11 314.53 180.51 311.98 183.02
  Q 310.92 184.06 308.46 184.77
  Q 303.50 186.18 297.86 187.90
  A 2.33 2.33 0.0 0 0 296.32 189.40
  Q 294.31 195.59 292.29 202.48
  C 291.28 205.89 287.50 206.94 285.01 203.85
  A 0.76 0.64 21.6 0 1 284.87 203.59
  L 280.57 188.89
  Z"
/>
</svg>
